Square/Säästöpankki.svg

<?xml version="1.0" encoding="UTF-8"?>
<svg width="32px" height="32px" viewBox="0 0 32 32" version="1.1" xmlns="http://www.w3.org/2000/svg" xmlns:xlink="http://www.w3.org/1999/xlink">
    <!-- Generator: Sketch 52.3 (67297) - http://www.bohemiancoding.com/sketch -->
    <title>Square/Säästöpankki</title>
    <desc>Created with Sketch.</desc>
    <g id="Square/Säästöpankki" stroke="none" stroke-width="1" fill="none" fill-rule="evenodd">
        <path d="M18.3133679,17.741937 L22.5125153,17.741937 C20.4191824,19.330609 19.1540889,21.7601379 19.1540889,24.3609687 C19.1540889,26.9757122 20.4307724,29.4139367 22.5428277,31 L9.46306281,31 C11.573335,29.4148063 12.8500185,26.9774514 12.8500185,24.3609687 C12.8500185,21.7627466 11.5831419,19.3323481 9.48802589,17.741937 L13.6862818,17.741937 C15.0958046,19.6506042 15.9302848,21.9357875 15.9302848,24.3609687 L16.0551003,24.3609687 C16.0551003,21.9436135 16.9047367,19.6584302 18.3133679,17.741937 Z M7.81968629,9.49206207 C7.882094,5.43125313 11.6274482,2 15.9977712,2 C20.3770094,2 24.1241468,5.43125313 24.1847714,9.49206207 L24.1865545,9.62510357 L24.3220684,9.62684267 C28.4837712,9.68597222 32,13.3398307 32,17.6049844 C32,19.7762564 31.1325328,21.8162259 29.5571839,23.3492465 C27.9827264,24.8874844 25.8858273,25.7344283 23.6551974,25.7344283 C22.8331987,25.7344283 21.9987184,25.5935608 21.1740451,25.3413907 C21.1588889,25.1857408 21.0839997,24.3614053 21.0839997,24.3614053 C21.0839997,23.406637 21.2899451,22.5231719 21.6911375,21.6579674 C22.2938177,21.9475283 22.9348341,22.1057868 23.6551974,22.1057868 C24.889087,22.1057868 26.0463043,21.6362286 26.9173376,20.7840674 C27.7910456,19.9310367 28.2724765,18.8023579 28.2724765,17.6049844 C28.2724765,16.4015242 27.7910456,15.2711062 26.9200123,14.4250319 C26.0543281,13.5763489 24.8971109,13.1093994 23.6605466,13.1093994 C22.4979801,13.1093994 21.792773,13.3154833 21.0554704,13.5667839 C21.0554704,13.5667839 19.9669016,13.9885167 19.5425292,14.1519925 C19.7484746,13.6459131 20.1416432,12.6702755 20.1416432,12.6694059 C20.4001895,11.9459385 20.6114841,11.2546445 20.6114841,10.1355307 C20.6114841,8.93467909 20.1327278,7.80513073 19.2599114,6.95123044 C18.3915527,6.10254745 17.2334438,5.63472835 15.9977712,5.63472835 C14.7674477,5.63472835 13.612905,6.10254745 12.7454378,6.95123044 C11.8717299,7.80339163 11.3911905,8.93467909 11.3911905,10.1355307 C11.3911905,11.2676877 11.6114006,11.979851 11.8601399,12.6702755 C11.8601399,12.6702755 12.2934277,13.7380856 12.4601454,14.1519925 C11.9412699,13.9511259 10.943638,13.5667839 10.943638,13.5667839 C10.2384309,13.3250483 9.50558605,13.1093994 8.34569415,13.1093994 C7.10912991,13.1093994 5.95012955,13.5763489 5.08087928,14.4241624 C4.20984593,15.2693671 3.73198117,16.399785 3.73198117,17.6049844 C3.73198117,18.8014883 4.21162901,19.9292976 5.08266236,20.7840674 C5.95637032,21.6362286 7.11537069,22.1057868 8.34747722,22.1057868 C9.06605745,22.1057868 9.70796534,21.9475283 10.3142117,21.6579674 C10.713621,22.5301283 10.918675,23.4135934 10.918675,24.3614053 C10.918675,24.3614053 10.8455688,25.1857408 10.8313042,25.3413907 C10.0030647,25.5935608 9.16769286,25.7344283 8.34747722,25.7344283 C6.11952191,25.7344283 4.02351433,24.8874844 2.44370769,23.3492465 C0.867467194,21.8092695 1.39278631e-13,19.7693 1.39013578e-13,17.6049844 C1.38491248e-13,13.3398307 3.51712033,9.68597222 7.67971471,9.62684267 L7.81790321,9.62510357 L7.81968629,9.49206207 Z" id="Säästöpankki" fill="#00B5D1"></path>
    </g>
</svg>

<svg width="32" height="32" xmlns="http://www.w3.org/2000/svg"><path d="M18.313 17.742h4.2c-2.094 1.589-3.359 4.018-3.359 6.619 0 2.615 1.277 5.053 3.389 6.639H9.463c2.11-1.585 3.387-4.023 3.387-6.639 0-2.598-1.267-5.029-3.362-6.62h4.198c1.41 1.91 2.244 4.195 2.244 6.62h.125c0-2.417.85-4.703 2.258-6.62zM7.82 9.492C7.882 5.432 11.627 2 15.998 2c4.379 0 8.126 3.431 8.187 7.492l.002.133.135.002C28.484 9.686 32 13.34 32 17.605c0 2.171-.867 4.211-2.443 5.744a8.392 8.392 0 0 1-5.902 2.385c-.822 0-1.656-.14-2.481-.393l-.09-.98c0-.954.206-1.838.607-2.703.603.29 1.244.448 1.964.448 1.234 0 2.391-.47 3.262-1.322a4.417 4.417 0 0 0 1.355-3.179 4.405 4.405 0 0 0-1.352-3.18 4.622 4.622 0 0 0-3.26-1.316c-1.162 0-1.867.206-2.605.458l-1.512.585.599-1.483c.258-.723.47-1.414.47-2.533a4.43 4.43 0 0 0-1.352-3.185 4.635 4.635 0 0 0-3.262-1.316 4.62 4.62 0 0 0-3.253 1.316 4.42 4.42 0 0 0-1.354 3.185c0 1.132.22 1.844.47 2.534l.6 1.482-1.517-.585c-.706-.242-1.438-.458-2.598-.458a4.644 4.644 0 0 0-3.265 1.315 4.399 4.399 0 0 0-1.349 3.181c0 1.196.48 2.324 1.35 3.18a4.647 4.647 0 0 0 3.265 1.32 4.47 4.47 0 0 0 1.967-.447c.4.872.605 1.756.605 2.703 0 0-.073.825-.088.98a8.55 8.55 0 0 1-2.484.393 8.41 8.41 0 0 1-5.903-2.385C.867 21.81 0 19.77 0 17.605c0-4.265 3.517-7.919 7.68-7.978l.138-.002.002-.133z" fill="#00B5D1" fill-rule="evenodd"/></svg>
